X: 54
T: Dr. Shaw
T: Strathspey, D
C: J. Scott Skinner
L: 1/16
M: C
K: D
|: A,1| D4F1D3 A3F1 d1B3| =c3A1 G1c3 E1G3 =C3E1| D4F3D1 A3F1 (3d2c2B2| (3A2G2F2 (3G2F2E2 F1D3 D3:| 
g1| (3f2e2d2 (3c2d2e2 (3d2c2B2 (3A2B2=c2| E1=C3 C3E1 G4G3g1| (3f2e2d2 (3c2d2e2 (3d2c2B2 (3A2B2c2| d3A1 F3D1 F1A3 A3g1|
(3f2e2d2 (3c2d2e2 (3d2c2B2 (3A2B2=c2| E1=C3 C3E1 G4G4| (3D2F2A2 (3d2f2a2 (3E2G2B2 (3e2g2b2| (3a2g2f2 (3g2f2e2 f1d3 d3|| 
D: Wendy MacIsaac, That's What You Get, WMT004
